packages/calcite-ui-icons/icons/white-cursor-selection-16.svg

<?xml version="1.0" encoding="UTF-8"?><svg id="icons" xmlns="http://www.w3.org/2000/svg" viewBox="0 0 16 16"><defs><style>.cls-1{fill:none;}.cls-2{fill-rule:evenodd;}</style></defs><path class="cls-2" d="M14,2H4c-.55267,0-1,.44727-1,1v1.61401l1,.72974v-2.34375h2.16309c.0058.68359.05762,1.57416.25684,2.30176.4668,1.71973.97656,2.20215,1.51556,2.71283.19019.1803.3855.37347.58856.63062l.70422.51385c.6416.4682.90918,1.29608.6629,2.05127-.06812.20886-.17712.39307-.3075.5589.08282.35968.21112.75659.45154,1.23077h-1.62653l.50098,1h5.09033c.55267,0,1-.44733,1-1V3c0-.55273-.44733-1-1-1ZM14,13h-3.05469c-.54694-.92969-.6308-1.54102-.70312-2.13281-.07031-.5733-.14362-1.1651-.58887-1.96582-.02155-.03809-.04205-.06445-.0625-.10059.23151-.3877.92285-1.35162,2.35059-1.9043.71088-.27643,1.43359-.42383,2.05859-.5v6.60352ZM14,5.5918c-.70123.0791-1.52148.23828-2.34772.55859-1.36316.52728-2.14941,1.375-2.54877,1.93457-.21869-.2666-.42584-.46979-.61725-.65137-.49609-.46881-.88666-.83789-1.29486-2.3418-.17578-.64264-.2226-1.45801-.22852-2.0918h7.03711v2.5918ZM9.17383,10.97607L1,5.01172v10.08838l2.11621-2.90186,1.88379,3.72998,2.55469-1.28516-1.83789-3.66699h3.45703ZM6.21289,14.19824l-.77051.38818-2.1709-4.29834-1.27148,1.74365v-5.05225l4.10645,2.99658h-2.00977l2.11621,4.22217Z"/><rect class="cls-1" width="16" height="16"/></svg>

<svg xmlns="http://www.w3.org/2000/svg" viewBox="0 0 16 16"><path d="M14 2H4a1 1 0 0 0-1 1v1.614l1 .73V3h2.163c.006.684.058 1.574.257 2.302.467 1.72.976 2.202 1.515 2.713.19.18.386.373.59.63l.703.514c.642.468.91 1.296.663 2.051a1.816 1.816 0 0 1-.307.56c.082.359.21.756.451 1.23H8.41l.5 1H14a1 1 0 0 0 1-1V3a1 1 0 0 0-1-1zm0 11h-3.055c-.547-.93-.63-1.541-.703-2.133-.07-.573-.143-1.165-.589-1.966-.021-.038-.042-.064-.062-.1.231-.388.923-1.352 2.35-1.905a8.595 8.595 0 0 1 2.059-.5V13zm0-7.408a9.446 9.446 0 0 0-2.348.558c-1.363.528-2.15 1.375-2.548 1.935a6.916 6.916 0 0 0-.618-.651c-.496-.47-.886-.838-1.295-2.342C7.016 4.449 6.97 3.634 6.963 3H14v2.592zm-4.826 5.384L1 5.012V15.1l2.116-2.902L5 15.928l2.555-1.285-1.838-3.667h3.457zm-2.961 3.222l-.77.388-2.172-4.298L2 12.032V6.979l4.106 2.997h-2.01l2.117 4.222z" fill-rule="evenodd"/><path fill="none" d="M0 0h16v16H0z"/></svg>
